assets/icons/ic-layout.svg

<svg width="24" height="25" viewBox="0 0 24 25" fill="none" xmlns="http://www.w3.org/2000/svg">
<path d="M18.773 2.50427H4.94065C4.15452 2.50427 3.4006 2.82028 2.84472 3.38278C2.28885 3.94528 1.97656 4.7082 1.97656 5.50369V19.501C1.97656 20.2965 2.28885 21.0594 2.84472 21.6219C3.4006 22.1844 4.15452 22.5004 4.94065 22.5004H18.773C18.9356 22.4981 19.0976 22.4814 19.2572 22.4504L19.5536 22.3804H19.6227H19.6721L20.0377 22.2405L20.1662 22.1705C20.265 22.1105 20.3736 22.0605 20.4724 21.9905C20.6044 21.8923 20.7298 21.7854 20.8479 21.6706L20.9171 21.5806C21.0141 21.4811 21.1033 21.3741 21.1838 21.2606L21.2728 21.1307C21.3418 21.0194 21.4013 20.9023 21.4506 20.7807C21.4777 20.7328 21.5008 20.6826 21.5198 20.6308C21.5692 20.5108 21.5988 20.3808 21.6383 20.2508V20.1009C21.6943 19.9055 21.7275 19.7042 21.7371 19.501V5.50369C21.7371 4.7082 21.4248 3.94528 20.869 3.38278C20.3131 2.82028 19.5592 2.50427 18.773 2.50427ZM4.94065 20.5008C4.67861 20.5008 4.4273 20.3955 4.24201 20.208C4.05671 20.0205 3.95262 19.7662 3.95262 19.501V15.1918L7.20323 11.8925C7.29508 11.7987 7.40436 11.7244 7.52476 11.6736C7.64516 11.6228 7.7743 11.5967 7.90473 11.5967C8.03516 11.5967 8.1643 11.6228 8.2847 11.6736C8.4051 11.7244 8.51438 11.7987 8.60623 11.8925L17.1033 20.5008H4.94065ZM19.7611 19.501C19.7601 19.6243 19.7367 19.7463 19.6919 19.8609C19.6693 19.9097 19.6429 19.9565 19.6129 20.0009C19.5864 20.0432 19.5567 20.0833 19.5239 20.1209L14.238 14.7719L15.1075 13.8921C15.1993 13.7984 15.3086 13.724 15.429 13.6732C15.5494 13.6225 15.6785 13.5963 15.809 13.5963C15.9394 13.5963 16.0685 13.6225 16.1889 13.6732C16.3093 13.724 16.4186 13.7984 16.5105 13.8921V13.8921L19.7611 17.1914V19.501ZM19.7611 14.362L17.9036 12.5023C17.3381 11.9594 16.5884 11.6568 15.809 11.6568C15.0295 11.6568 14.2798 11.9594 13.7143 12.5023L12.8449 13.3822L9.99935 10.5027C9.43392 9.95982 8.68419 9.65717 7.90473 9.65717C7.12528 9.65717 6.37554 9.95982 5.81011 10.5027L3.95262 12.3624V5.50369C3.95262 5.23853 4.05671 4.98422 4.24201 4.79672C4.4273 4.60922 4.67861 4.50389 4.94065 4.50389H18.773C19.0351 4.50389 19.2864 4.60922 19.4717 4.79672C19.657 4.98422 19.7611 5.23853 19.7611 5.50369V14.362Z" fill="#37352F"/>
<ellipse cx="14.3277" cy="9.00301" rx="1.48204" ry="1.49971" fill="#37352F"/>
</svg>

<svg xmlns="http://www.w3.org/2000/svg" width="24" height="25" fill="#37352f" xmlns:v="https://vecta.io/nano"><path d="M18.773 2.504H4.941c-.786 0-1.54.316-2.096.879s-.868 1.325-.868 2.121v13.997c0 .796.312 1.558.868 2.121s1.31.878 2.096.878h13.832c.163-.002.325-.019.484-.05l.296-.07h.069.049l.366-.14.128-.07.306-.18a3.75 3.75 0 0 0 .375-.32l.069-.09c.097-.099.186-.207.267-.32l.089-.13c.069-.111.128-.228.178-.35.027-.048.05-.098.069-.15.049-.12.079-.25.119-.38v-.15a2.63 2.63 0 0 0 .099-.6V5.504a3.02 3.02 0 0 0-.868-2.121c-.556-.562-1.31-.879-2.096-.879zM4.941 20.501a.98.98 0 0 1-.699-.293c-.185-.187-.289-.442-.289-.707v-4.309l3.251-3.299c.092-.094.201-.168.322-.219s.25-.077.38-.077.26.026.38.077.23.125.322.219l8.497 8.608H4.941zm14.82-1a1.01 1.01 0 0 1-.069.36 1 1 0 0 1-.079.14.95.95 0 0 1-.089.12l-5.286-5.349.87-.88a.99.99 0 0 1 .322-.219.98.98 0 0 1 .76 0 .99.99 0 0 1 .322.219h0l3.251 3.299v2.31zm0-5.139l-1.857-1.86c-.566-.543-1.315-.845-2.095-.845s-1.529.303-2.095.845l-.869.88-2.846-2.879c-.565-.543-1.315-.846-2.095-.846s-1.529.303-2.095.846l-1.857 1.86V5.504c0-.265.104-.519.289-.707a.98.98 0 0 1 .699-.293h13.832a.98.98 0 0 1 .699.293c.185.188.289.442.289.707v8.858z"/><ellipse cx="14.328" cy="9.003" rx="1.482" ry="1.5"/></svg>
